X: 3
T: Atholl Highlanders
R: jig
S: Fiddle Hell Online 2021-10-29 in Roger Miller's New England jig medley
Z: 2022 John Chambers <jc:trillian.mit.edu>
M: 6/8
L: 1/8
K: A
|: "A"e3  ecA |    ecA "E"Bcd |1,3 "A"e3  ecA | "E"Bcd  cBA :|2,4 "A"eae "D"fed | "E"cdB "A"A3 :|
|: "A"Ace Ace | "D"Adf    Adf |1,3 "A"Ace Ace | "E"Bcd  c2B :|2,4 "A"eae "D"fed | "E"cdB "A"A3 :|
|: "A"a2e edc |    a2e    edc |1,3    a2e edc | "E"Bcd  efg :|2,4 "A"eae "D"fed | "E"cdB "A"A3 :|
|: "A"cAc cAc | "D"dBd    dBd |1,3 "A"cAc cAc | "G"B=GB BGB :|2,4 "A"eae "D"fed | "E"cdB "A"A3 :|
%%center Once through the tune is twice through a contra dance.

